fs/task_list_add_24_filled.svg

<svg viewBox="0 0 24 24" fill="none" xmlns="http://www.w3.org/2000/svg" height="1em" width="1em">
  <path d="M6.70711 2.29289C6.31658 1.90237 5.68342 1.90237 5.29289 2.29289L4 3.58579L3.70711 3.29289C3.31658 2.90237 2.68342 2.90237 2.29289 3.29289C1.90237 3.68342 1.90237 4.31658 2.29289 4.70711L3.29289 5.70711C3.68342 6.09763 4.31658 6.09763 4.70711 5.70711L6.70711 3.70711C7.09763 3.31658 7.09763 2.68342 6.70711 2.29289ZM11 17.5C11 17.6659 11.0062 17.8304 11.0184 17.9933H10C9.44772 17.9933 9 17.5456 9 16.9933C9 16.4804 9.38604 16.0578 9.88338 16L10 15.9933H11.1755C11.0608 16.4768 11 16.9813 11 17.5ZM17.5 11C18.7741 11 19.9625 11.3666 20.9656 12H21.0039L21.1205 11.9932C21.6179 11.9355 22.0039 11.5128 22.0039 11C22.0039 10.4477 21.5562 9.99996 21.0039 9.99996H10L9.88338 10.0067C9.38604 10.0645 9 10.4871 9 11C9 11.5522 9.44772 12 10 12H14.0344C15.0375 11.3666 16.2259 11 17.5 11ZM21.0039 4H10L9.88338 4.00673C9.38604 4.06449 9 4.48716 9 5C9 5.55228 9.44772 6 10 6H21.0039L21.1205 5.99327C21.6179 5.93551 22.0039 5.51284 22.0039 5C22.0039 4.44772 21.5562 4 21.0039 4ZM6.70711 15.2929C6.31658 14.9024 5.68342 14.9024 5.29289 15.2929L4 16.5858L3.70711 16.2929C3.31658 15.9024 2.68342 15.9024 2.29289 16.2929C1.90237 16.6834 1.90237 17.3166 2.29289 17.7071L3.29289 18.7071C3.68342 19.0976 4.31658 19.0976 4.70711 18.7071L6.70711 16.7071C7.09763 16.3166 7.09763 15.6834 6.70711 15.2929ZM5.29289 8.79289C5.68342 8.40237 6.31658 8.40237 6.70711 8.79289C7.09763 9.18342 7.09763 9.81658 6.70711 10.2071L4.70711 12.2071C4.31658 12.5976 3.68342 12.5976 3.29289 12.2071L2.29289 11.2071C1.90237 10.8166 1.90237 10.1834 2.29289 9.79289C2.68342 9.40237 3.31658 9.40237 3.70711 9.79289L4 10.0858L5.29289 8.79289ZM23 17.5C23 14.4624 20.5376 12 17.5 12C14.4624 12 12 14.4624 12 17.5C12 20.5376 14.4624 23 17.5 23C20.5376 23 23 20.5376 23 17.5ZM18.0006 18L18.0011 20.5035C18.0011 20.7797 17.7773 21.0035 17.5011 21.0035C17.225 21.0035 17.0011 20.7797 17.0011 20.5035L17.0006 18H14.4956C14.2197 18 13.9961 17.7762 13.9961 17.5C13.9961 17.2239 14.2197 17 14.4956 17H17.0005L17 14.4993C17 14.2231 17.2239 13.9993 17.5 13.9993C17.7761 13.9993 18 14.2231 18 14.4993L18.0005 17H20.4966C20.7725 17 20.9961 17.2239 20.9961 17.5C20.9961 17.7762 20.7725 18 20.4966 18H18.0006Z" fill="#212121"/>
</svg>

<svg viewBox="0 0 24 24" fill="none" xmlns="http://www.w3.org/2000/svg" height="1em" width="1em">
  <path d="M6.707 2.293a1 1 0 0 0-1.414 0L4 3.586l-.293-.293a1 1 0 0 0-1.414 1.414l1 1a1 1 0 0 0 1.414 0l2-2a1 1 0 0 0 0-1.414ZM11 17.5c0 .166.006.33.018.493H10A1 1 0 0 1 9.883 16l.117-.007h1.175A6.521 6.521 0 0 0 11 17.5Zm6.5-6.5a6.47 6.47 0 0 1 3.466 1h.038l.116-.007A1 1 0 0 0 21.005 10H10l-.117.007A1 1 0 0 0 10 12h4.034a6.47 6.47 0 0 1 3.466-1Zm3.504-7H10l-.117.007A1 1 0 0 0 10 6h11.004l.116-.007A1 1 0 0 0 21.005 4ZM6.707 15.293a1 1 0 0 0-1.414 0L4 16.586l-.293-.293a1 1 0 0 0-1.414 1.414l1 1a1 1 0 0 0 1.414 0l2-2a1 1 0 0 0 0-1.414Zm-1.414-6.5a1 1 0 0 1 1.414 1.414l-2 2a1 1 0 0 1-1.414 0l-1-1a1 1 0 0 1 1.414-1.414l.293.293 1.293-1.293ZM23 17.5a5.5 5.5 0 1 0-11 0 5.5 5.5 0 0 0 11 0Zm-5 .5.001 2.503a.5.5 0 1 1-1 0V18h-2.505a.5.5 0 0 1 0-1H17v-2.5a.5.5 0 1 1 1 0V17h2.497a.5.5 0 0 1 0 1H18Z" fill="#212121"/>
</svg>
